!!!COM: one-direction
!!!OTL: little-things
!!!RNB: hooktheoryid: veWxLbZpmaK
**kern	**text
*clefG2	*
*k[f#]	*
*M4/4	*
=1	=1
4b	G
8b	G
8b	.
[8aL	.
8a]J	Gadd9
8g	.
16e	.
[16g	.
=2	=2
4g]	G
8g	G
16e	.
16a	.
[8bL	.
8b]J	Gadd9
8r	.
8e	.
=3	=3
16a	C
8.b	.
16b	Cmaj7
8b	.
[8.aL	.
16a]J	C
16a]	.
8g	.
8g	.
=4	=4
4r	C
8g	Cmaj7
16d	.
8.d	.
4r	C
16d	.
16d	.
=5	=5
8b	Em
8b	.
8b	Esus4
16dd	.
[8.ddL	.
16dd]J	Esus4
16dd]	.
8cc	.
8b	.
=6	=6
16a	Dadd9/F#
8g	.
[16aL	.
16a]J	Dadd9/F#
16a	.
8b	.
[8aL	.
8a]J	Dadd9/F#
16d	.
8d	.
16r	.
=7	=7
16a	C
8b	.
[16bL	.
8.b]J	Cmaj7
16b]	.
4.a	Dsus4
16g	.
[16g	.
=8	=8
4g]	G
2.r	G
*-	*-